X: 15696
T: Golden Eagle, The
R: hornpipe
M: 4/4
K: Gmajor
|:(3DEF|GB,DG BDGB|dGBd gbag|fed^c =cAFA|GBAG (3FAF (3DEF|
GB,DG BdGB|dGBd gfag|fAce dGBA|GgdB G2:|
|:(3BcB|bB^df bagf|(3efe (3^def gfg^g|aA^ce agfe|d^cde dfab|
c'afd ^cdef|gBdg beag|fA^ce dFAB|GgdB G2:|
|:(3DEF|(3GFG (3DEG (3B^AB (3G=AB|(3d^cd (3GBd gfag|fed^c =cAFA|GBAG (3FAF (3DEF|
GB,DG BDGB|dGBd gbag|fAce dFAB|GgdB G2:|
|:(3BcB|(3bBB (3cBB (3^dBB (3fBB|(3eBB (3fBB (3gfg (3efg|(3aAA (3^cAA (3eAA (3aAA|
(3d^cd (3f^ef (3dfa d'2|c'afd ^cdef|gBdg beag|fAce dFAB|1 GgdB G2:|2 GBAB G2||

